status/16/notification-network-wireless-none.svg

<?xml version="1.0" encoding="UTF-8" standalone="no"?>
<!-- Created with Inkscape (http://www.inkscape.org/) -->

<svg
   xmlns:svg="http://www.w3.org/2000/svg"
   xmlns="http://www.w3.org/2000/svg"
   version="1.1"
   width="16"
   height="16"
   id="svg3310">
  <defs
     id="defs3312" />
  <g
     id="layer1">
    <path
       d="m 9.615522,11.867123 c -0.070922,0.06125 -1.63629,1.726213 -1.63629,1.726213 0,0 -1.5504621,-1.679031 -1.6086345,-1.726213 0.1039591,-0.07821 0.5282643,-0.385762 1.6120146,-0.381376 1.0663875,0.0043 1.5516875,0.305569 1.6329099,0.381376 z"
       id="path3375"
       style="opacity:0.4;fill:#9b9b9b;fill-opacity:1;fill-rule:evenodd;stroke:none;overflow:visible" />
    <path
       d="m 0.62500002,5.616726 c 0,0 2.33562118,-2.5850623 7.36045718,-2.5850623 5.0001338,0 7.3895428,2.5894499 7.3895428,2.5894499"
       id="path2513"
       style="opacity:0.4;fill:none;stroke:#9c9c9c;stroke-width:1.25;stroke-linecap:butt;stroke-linejoin:miter;stroke-miterlimit:4;stroke-opacity:1;stroke-dasharray:none;overflow:visible" />
    <path
       d="m 2.775213,7.9065041 c 0,0 1.6820809,-1.8252455 5.2102442,-1.760306 C 11.542886,6.2116765 13.1957,7.9358195 13.1957,7.9358195"
       id="path2511"
       style="opacity:0.4;fill:none;stroke:#9b9b9b;stroke-width:1.25;stroke-linecap:butt;stroke-linejoin:miter;stroke-miterlimit:4;stroke-opacity:1;stroke-dasharray:none;overflow:visible" />
    <path
       d="m 4.8175881,10.164536 c 0,0 0.7664077,-0.9727584 3.1145127,-0.9975528 2.3188312,-0.024485 3.2060852,0.9975528 3.2060852,0.9975528"
       id="path3209"
       style="opacity:0.4;fill:none;stroke:#9b9b9b;stroke-width:1.25;stroke-linecap:butt;stroke-linejoin:miter;stroke-miterlimit:4;stroke-opacity:1;stroke-dasharray:none;overflow:visible" />
  </g>
</svg>

<?xml version="1.0" encoding="UTF-8" standalone="no"?>
<!-- Created with Inkscape (http://www.inkscape.org/) -->
<svg
   xmlns:dc="http://purl.org/dc/elements/1.1/"
   xmlns:cc="http://creativecommons.org/ns#"
   xmlns:rdf="http://www.w3.org/1999/02/22-rdf-syntax-ns#"
   xmlns:svg="http://www.w3.org/2000/svg"
   xmlns="http://www.w3.org/2000/svg"
   xmlns:sodipodi="http://sodipodi.sourceforge.net/DTD/sodipodi-0.dtd"
   xmlns:inkscape="http://www.inkscape.org/namespaces/inkscape"
   width="16px"
   height="16px"
   id="svg3310"
   sodipodi:version="0.32"
   inkscape:version="0.46"
   sodipodi:docname="notification-network-wireless-none.svg"
   inkscape:output_extension="org.inkscape.output.svg.inkscape">
  <defs
     id="defs3312" />
  <sodipodi:namedview
     id="base"
     pagecolor="#ffffff"
     bordercolor="#666666"
     borderopacity="1.0"
     inkscape:pageopacity="0.0"
     inkscape:pageshadow="2"
     inkscape:zoom="22.197802"
     inkscape:cx="8"
     inkscape:cy="8"
     inkscape:current-layer="layer1"
     showgrid="true"
     inkscape:grid-bbox="true"
     inkscape:document-units="px"
     inkscape:window-width="673"
     inkscape:window-height="679"
     inkscape:window-x="0"
     inkscape:window-y="24" />
  <metadata
     id="metadata3315">
    <rdf:RDF>
      <cc:Work
         rdf:about="">
        <dc:format>image/svg+xml</dc:format>
        <dc:type
           rdf:resource="http://purl.org/dc/dcmitype/StillImage" />
      </cc:Work>
    </rdf:RDF>
  </metadata>
  <g
     id="layer1"
     inkscape:label="Layer 1"
     inkscape:groupmode="layer">
    <path
       sodipodi:nodetypes="ccczc"
       id="path3375"
       d="M 9.615522,11.867123 C 9.5446004,11.928375 7.979232,13.593336 7.979232,13.593336 C 7.979232,13.593336 6.4287699,11.914305 6.3705975,11.867123 C 6.4745566,11.788915 6.8988618,11.481361 7.9826121,11.485747 C 9.0489996,11.490064 9.5342996,11.791316 9.615522,11.867123 z"
       style="opacity:0.4;fill:#9b9b9b;fill-opacity:1;fill-rule:evenodd;stroke:none;stroke-width:5.33333349000000023;stroke-linecap:round;stroke-linejoin:miter;stroke-miterlimit:4;stroke-dasharray:none;stroke-opacity:1;overflow:visible" />
    <path
       id="path2513"
       d="M 0.62500002,5.616726 C 0.62500002,5.616726 2.9606212,3.0316637 7.9854572,3.0316637 C 12.985591,3.0316637 15.375,5.6211136 15.375,5.6211136"
       style="fill:none;fill-rule:evenodd;stroke:#9c9c9c;stroke-width:1.25000000000000000;stroke-linecap:butt;stroke-linejoin:miter;stroke-miterlimit:4;stroke-dasharray:none;stroke-opacity:1;overflow:visible;opacity:0.40000000000000002" />
    <path
       id="path2511"
       d="M 2.775213,7.9065041 C 2.775213,7.9065041 4.4572939,6.0812586 7.9854572,6.1461981 C 11.542886,6.2116765 13.1957,7.9358195 13.1957,7.9358195"
       style="fill:none;fill-rule:evenodd;stroke:#9b9b9b;stroke-width:1.25000000000000000;stroke-linecap:butt;stroke-linejoin:miter;stroke-miterlimit:4;stroke-dasharray:none;stroke-opacity:1;overflow:visible;opacity:0.40000000000000002" />
    <path
       sodipodi:nodetypes="csc"
       id="path3209"
       d="M 4.8175881,10.164536 C 4.8175881,10.164536 5.5839958,9.1917776 7.9321008,9.1669832 C 10.250932,9.1424978 11.138186,10.164536 11.138186,10.164536"
       style="fill:none;fill-rule:evenodd;stroke:#9b9b9b;stroke-width:1.25000000000000000;stroke-linecap:butt;stroke-linejoin:miter;stroke-miterlimit:4;stroke-dasharray:none;stroke-opacity:1;overflow:visible;opacity:0.40000000000000002" />
  </g>
</svg>
